src/assets/icons/widget-preview/light/flame-diagram.svg

<svg width="324" height="117" viewBox="0 0 324 117" fill="none" xmlns="http://www.w3.org/2000/svg">
<g opacity="0.8">
<path opacity="0.8" d="M124.6 58.9996C123.7 50.6996 122.6 68.9996 114.1 68.9996C111 68.9996 102.1 45.0996 99.6 46.5996C92.6 41.6996 83 43.3996 78.1 50.3996C76.7 52.4996 75.7 54.7996 75.4 57.2996C66.8 59.9996 62 69.2996 64.7 77.8996C66.9 84.6996 73.2 89.2996 80.3 89.2996H82C86.1 94.2996 92.8 77.6996 116.4 89.2996H118.7C127.4 89.2996 134.5 82.2996 134.5 73.5996C134.5 67.1996 130.6 61.3996 124.7 58.8996H124.6V58.9996Z" fill="#EBF1F9"/>
<path opacity="0.8" d="M70.2 46.2988C72.2 46.2988 73.8 47.8988 73.8 49.8988C73.8 51.8988 72.2 53.4988 70.2 53.4988C68.2 53.4988 66.6 51.8988 66.6 49.8988C66.5 47.8988 68.2 46.2988 70.2 46.2988Z" fill="#EBF1F9"/>
<path opacity="0.8" d="M68 37.3004C68 36.0004 69.1 34.9004 70.4 34.9004C71.7 34.9004 72.8 36.0004 72.8 37.3004C72.8 38.6004 71.7 39.7004 70.4 39.7004C69.1 39.7004 68 38.6004 68 37.3004Z" fill="#EBF1F9"/>
<path opacity="0.8" d="M99.2 26.3996C100.525 26.3996 101.6 25.3251 101.6 23.9996C101.6 22.6741 100.525 21.5996 99.2 21.5996C97.8745 21.5996 96.8 22.6741 96.8 23.9996C96.8 25.3251 97.8745 26.3996 99.2 26.3996Z" fill="#EBF1F9"/>
<path opacity="0.8" d="M111.6 26.4992C111.6 25.4992 112.4 24.6992 113.4 24.6992C114.4 24.6992 115.2 25.4992 115.2 26.4992C115.2 27.4992 114.4 28.2992 113.4 28.2992C112.4 28.2992 111.6 27.4992 111.6 26.4992Z" fill="#EBF1F9"/>
<path opacity="0.8" d="M86.4 26.4992C86.4 25.4992 87.2 24.6992 88.2 24.6992C89.2 24.6992 90 25.4992 90 26.4992C90 27.4992 89.2 28.2992 88.2 28.2992C87.2 28.2992 86.4 27.4992 86.4 26.4992Z" fill="#EBF1F9"/>
<path opacity="0.8" d="M116.6 40.6992C118.257 40.6992 119.6 39.3561 119.6 37.6992C119.6 36.0424 118.257 34.6992 116.6 34.6992C114.943 34.6992 113.6 36.0424 113.6 37.6992C113.6 39.3561 114.943 40.6992 116.6 40.6992Z" fill="#EBF1F9"/>
<path opacity="0.8" d="M78.8 34.6992C78.8 32.9992 80.1 31.6992 81.8 31.6992C83.5 31.6992 84.8 32.9992 84.8 34.6992C84.8 36.3992 83.5 37.6992 81.8 37.6992C80.1 37.6992 78.8 36.2992 78.8 34.6992Z" fill="#EBF1F9"/>
<path opacity="0.8" d="M122.3 34.9996C122.3 33.6996 123.4 32.5996 124.7 32.5996C126 32.5996 127.1 33.6996 127.1 34.9996C127.1 36.2996 126 37.3996 124.7 37.3996C123.3 37.3996 122.3 36.2996 122.3 34.9996Z" fill="#EBF1F9"/>
<path opacity="0.8" d="M99.2 40.7992C101.299 40.7992 103 39.0979 103 36.9992C103 34.9005 101.299 33.1992 99.2 33.1992C97.1013 33.1992 95.4 34.9005 95.4 36.9992C95.4 39.0979 97.1013 40.7992 99.2 40.7992Z" fill="#EBF1F9"/>
<path opacity="0.8" d="M124.7 45.5004C124.7 43.8004 126.1 42.4004 127.8 42.4004C129.5 42.4004 130.9 43.8004 130.9 45.5004C130.9 47.2004 129.5 48.6004 127.8 48.6004C126 48.6004 124.6 47.2004 124.7 45.5004C124.6 45.5004 124.6 45.5004 124.7 45.5004Z" fill="#EBF1F9"/>
<path opacity="0.8" d="M107.8 96.4C118.57 96.4 127.3 88.0277 127.3 77.7C127.3 67.3723 118.57 59 107.8 59C97.0305 59 88.3 67.3723 88.3 77.7C88.3 88.0277 97.0305 96.4 107.8 96.4Z" fill="#EBF1F9"/>
<path opacity="0.8" d="M89.1 96.0988C96.8872 96.0988 103.2 90.0994 103.2 82.6988C103.2 75.2982 96.8872 69.2988 89.1 69.2988C81.3128 69.2988 75 75.2982 75 82.6988C75 90.0994 81.3128 96.0988 89.1 96.0988Z" fill="#EBF1F9"/>
<path opacity="0.8" d="M116.1 69.5996C122.175 69.5996 127.1 64.8986 127.1 59.0996C127.1 53.3006 122.175 48.5996 116.1 48.5996C110.025 48.5996 105.1 53.3006 105.1 59.0996C105.1 64.8986 110.025 69.5996 116.1 69.5996Z" fill="#EBF1F9"/>
<path opacity="0.8" d="M105.1 67.7988C112.059 67.7988 117.7 62.4262 117.7 55.7988C117.7 49.1714 112.059 43.7988 105.1 43.7988C98.1412 43.7988 92.5 49.1714 92.5 55.7988C92.5 62.4262 98.1412 67.7988 105.1 67.7988Z" fill="#EBF1F9"/>
</g>
<path d="M107.3 60.9008C104.6 60.8008 101.9 61.9008 100 63.8008C96 67.8008 96 74.2008 100 78.3008C104.1 82.2008 110.5 82.2008 114.6 78.3008C118.6 74.3008 118.6 67.8008 114.6 63.8008C112.7 61.9008 110 60.8008 107.3 60.9008ZM107.3 77.3008C105.7 77.3008 104.2 76.7008 103.2 75.5008C100.9 73.0008 100.9 69.1008 103.2 66.6008C105.2 64.3008 108.8 64.1008 111 66.2008C111.2 66.3008 111.3 66.5008 111.4 66.6008C113.7 69.1008 113.7 73.0008 111.4 75.5008C110.4 76.7008 108.9 77.3008 107.3 77.3008Z" fill="#0089FF"/>
<path d="M88 60.9008C85.3 60.8008 82.6 61.9008 80.7 63.8008C78.7 65.7008 77.6 68.3008 77.7 71.1008C77.6 73.8008 78.7 76.4008 80.6 78.3008C84.9 82.3008 91.5 82.1008 95.6 77.9008C95.7 77.7008 95.9 77.6008 96 77.4008L93.2 74.5008C92 76.2008 90 77.1008 87.9 77.1008C86.4 77.1008 84.9 76.5008 83.9 75.4008C82.7 74.2008 82.1 72.6008 82.2 71.0008C82.1 69.4008 82.8 67.8008 84 66.7008C85.1 65.6008 86.7 65.1008 88.2 65.1008C90.2 65.1008 92.1 66.0008 93.4 67.7008L96.1 64.6008C94.1 62.2008 91.1 60.8008 88 60.9008Z" fill="#0089FF"/>
<path d="M120.5 74.8009C119.9 74.8009 119.3 74.9009 118.8 75.2009C118.3 75.5009 117.9 76.0009 117.6 76.5009L117.5 76.6009L119.1 77.5009L119.2 77.4009C119.6 76.8009 120 76.5009 120.4 76.5009C120.6 76.5009 120.8 76.6009 120.9 76.7009C121 76.8009 121.1 77.0009 121.1 77.2009C121.1 77.5009 121 77.7009 120.8 77.9009C120.5 78.3009 120.2 78.7009 119.9 79.0009L117.7 81.3009V82.7009H123.3V80.9009H120.5L121.6 79.7009C122 79.3009 122.4 78.8009 122.7 78.3009C122.9 77.9009 123 77.5009 123 77.1009C123 76.4009 122.7 75.8009 122.2 75.3009C121.8 75.0009 121.2 74.7009 120.5 74.8009Z" fill="#0089FF"/>
<path opacity="0.8" d="M252.5 81.8004L249.4 79.8004L246.4 77.7004L243.1 75.6004L240 73.9004C239.3 74.2004 239.5 74.3004 238.7 74.5004C237.4 74.7004 236.1 74.9004 234.8 75.0004L236.3 76.5004L239.1 78.6004L241.6 81.0004L243.8 83.6004L246.6 85.7004L248.9 88.2004L251.6 90.6004L255.3 88.3004L258.8 85.9004L255.6 84.0004L252.5 81.8004Z" fill="#8C99B2"/>
<path opacity="0.8" d="M258.8 71.7L257.5 71.6L256.2 71.4L254.9 71.1L253.6 70.8L252.3 70.6L251 70.4L249.7 70.2L248.2 69L247.7 69.1L247.3 69.7L247.5 70.2L247 70.1C245.8 71.5 244.4 72.6 242.8 73.4H242.9L244.2 73.6L245.5 74L246.8 74.3L248.1 74.6L249.4 75L250.7 75.4L252 75.6L253.3 76L254.6 76.3L255.9 76.6L257.2 77L258.5 77.2L258.9 75.9L259.4 74.6L259.8 73.3L260.3 72L258.8 71.7Z" fill="#8C99B2"/>
<path opacity="0.8" d="M206.2 76.4008L207.4 76.0008L208.7 75.8008L209.9 75.4008L211.1 75.2008L212.1 75.4008L213.1 75.6008L214.1 75.9008L215.1 75.3008L214.2 74.8008L213.4 74.4008L214.6 74.0008L215.8 73.7008L216.9 73.2008L218.5 72.5008H218.7C218 72.2008 214.6 70.3008 214.1 69.3008L212.2 69.8008C212 69.8008 211.8 69.8008 211.7 69.8008C211.4 69.8008 211.1 69.9008 210.8 69.9008C210.2 70.0008 209.5 70.1008 208.9 70.2008C207.3 70.5008 205.6 70.8008 204 71.0008L202.8 71.2008L201.6 71.3008L200.4 71.6008L200.6 72.8008L200.9 73.9008L201 75.1008L201.2 76.3008L201.5 77.4008L202.7 77.1008L204 76.9008L205.2 76.6008L206.2 76.4008Z" fill="#8C99B2"/>
<path opacity="0.8" d="M235.5 81.1004L234.4 81.8004L234.3 77.9004L234.1 74.9004C233.1 75.0004 232 75.0004 231 75.0004C230 75.0004 228.9 75.0004 227.6 74.9004L227.2 77.0004L225.6 80.3004L224.6 83.8004L223.5 87.3004L222.5 90.8004L221.4 94.2004L225.8 94.1004L230.2 93.9004H234.6L234.4 90.5004L234.7 87.0004L234.3 83.5004L235.6 83.1004L235.5 81.1004Z" fill="#8C99B2"/>
<path opacity="0.8" d="M225.1 76.6016L226.8 74.9016C225 74.7016 223.2 74.3016 221.6 73.6016L221.1 73.9016L217 75.9016L213.9 77.7016L211.2 80.0016L208.2 81.9016L205.4 84.1016L202.2 86.0016L205.7 88.1016L209.2 90.1016L211.9 87.8016L214.5 85.5016L217 83.1016L219.9 81.1016L222.3 78.7016L225.1 76.6016Z" fill="#8C99B2"/>
<path d="M249.6 52.9008C249.7 58.4008 246.8 59.2008 246.8 59.2008C246.8 59.2008 246.7 52.5008 250.2 47.7008C246.6 47.2008 243.2 52.6008 243.2 52.6008C244 51.4008 244.6 50.1008 245.2 48.7008C246.1 45.9008 245.9 40.7008 243.3 39.0008C242.5 45.3008 239.1 46.8008 239.1 46.8008C239.1 46.8008 243.5 35.1008 236.6 31.6008C237 37.7008 233.9 40.6008 233.9 40.6008C233.9 40.6008 234.9 38.7008 233.2 35.0008C231.7 31.8008 231.1 26.2008 234.1 24.3008C227.3 24.9008 224.5 30.7008 223.7 35.3008C223.2 38.1008 223.4 40.9008 224.2 43.6008C224.2 43.6008 221 36.6008 216.1 38.6008C219 40.9008 219.7 45.0008 217.8 48.1008C216.2 51.1008 216.4 56.0008 216.4 56.0008C216.4 56.0008 214.3 54.4008 214.8 49.4008C213.4 49.6008 211 54.1008 211.2 58.6008C211.2 61.9008 212.5 65.0008 214.6 67.4008C216.3 69.5008 219.2 70.8008 222.5 71.5008C221.5 70.0008 221 68.2008 220.9 66.4008C220.7 61.9008 225.4 59.5008 225.2 55.8008C226.3 56.0008 227.1 56.9008 227.3 58.0008C228.9 54.7008 231.2 52.1008 231.1 48.5008C235 49.7008 232.9 55.4008 235.5 60.2008C235.6 58.9008 236.5 57.9008 237.7 57.6008C237.4 60.9008 242 63.0008 241.8 67.0008C241.7 68.7008 241.1 70.3008 240 71.6008C240.4 71.5008 240.7 71.5008 241 71.4008C247.7 69.8008 256.5 57.7008 249.6 52.9008Z" fill="#F7931E"/>
</svg>

<?xml version="1.0" encoding="utf-8"?>
<!-- Generator: Adobe Illustrator 23.0.3, SVG Export Plug-In . SVG Version: 6.00 Build 0)  -->
<svg version="1.1" id="e8c0adc0-e2f7-413c-9ffb-332e3325e178"
	 xmlns="http://www.w3.org/2000/svg" xmlns:xlink="http://www.w3.org/1999/xlink" x="0px" y="0px" viewBox="0 0 324 116.8"
	 style="enable-background:new 0 0 324 116.8;" xml:space="preserve">
<style type="text/css">
	.st0{opacity:0.8;}
	.st1{fill:#FFFFFF;}
	.st2{fill:#3FA9F5;}
	.st3{opacity:0.8;fill:#FFFFFF;enable-background:new    ;}
	.st4{fill:#F4A321;}
</style>
<title>Prew</title>
<g class="st0">
	<path class="st1" d="M124.6,59c-0.9-8.3-2,10-10.5,10c-3.1,0-12-23.9-14.5-22.4c-7-4.9-16.6-3.2-21.5,3.8c-1.4,2.1-2.4,4.4-2.7,6.9
		c-8.6,2.7-13.4,12-10.7,20.6c2.2,6.8,8.5,11.4,15.6,11.4H82c4.1,5,10.8-11.6,34.4,0h2.3c8.7,0,15.8-7,15.8-15.7
		c0-6.4-3.9-12.2-9.8-14.7H124.6z"/>
	<path class="st1" d="M70.2,46.3c2,0,3.6,1.6,3.6,3.6c0,2-1.6,3.6-3.6,3.6c-2,0-3.6-1.6-3.6-3.6C66.5,47.9,68.2,46.3,70.2,46.3
		C70.2,46.3,70.2,46.3,70.2,46.3z"/>
	<path class="st1" d="M68,37.3c0-1.3,1.1-2.4,2.4-2.4s2.4,1.1,2.4,2.4c0,1.3-1.1,2.4-2.4,2.4c0,0,0,0,0,0C69.1,39.7,68,38.6,68,37.3
		C68,37.3,68,37.3,68,37.3z"/>
	<circle class="st1" cx="99.2" cy="24" r="2.4"/>
	<path class="st1" d="M111.6,26.5c0-1,0.8-1.8,1.8-1.8c1,0,1.8,0.8,1.8,1.8c0,1-0.8,1.8-1.8,1.8l0,0
		C112.4,28.3,111.6,27.5,111.6,26.5z"/>
	<path class="st1" d="M86.4,26.5c0-1,0.8-1.8,1.8-1.8c1,0,1.8,0.8,1.8,1.8c0,1-0.8,1.8-1.8,1.8l0,0C87.2,28.3,86.4,27.5,86.4,26.5z"
		/>
	<circle class="st1" cx="116.6" cy="37.7" r="3"/>
	<path class="st1" d="M78.8,34.7c0-1.7,1.3-3,3-3s3,1.3,3,3s-1.3,3-3,3S78.8,36.3,78.8,34.7z"/>
	<path class="st1" d="M122.3,35c0-1.3,1.1-2.4,2.4-2.4c1.3,0,2.4,1.1,2.4,2.4c0,1.3-1.1,2.4-2.4,2.4c0,0,0,0,0,0
		C123.3,37.4,122.3,36.3,122.3,35z"/>
	<circle class="st1" cx="99.2" cy="37" r="3.8"/>
	<path class="st1" d="M124.7,45.5c0-1.7,1.4-3.1,3.1-3.1c1.7,0,3.1,1.4,3.1,3.1c0,1.7-1.4,3.1-3.1,3.1
		C126,48.6,124.6,47.2,124.7,45.5C124.6,45.5,124.6,45.5,124.7,45.5z"/>
	<ellipse class="st1" cx="107.8" cy="77.7" rx="19.5" ry="18.7"/>
	<ellipse class="st1" cx="89.1" cy="82.7" rx="14.1" ry="13.4"/>
	<ellipse class="st1" cx="116.1" cy="59.1" rx="11" ry="10.5"/>
	<ellipse class="st1" cx="105.1" cy="55.8" rx="12.6" ry="12"/>
</g>
<path class="st2" d="M107.3,60.9c-2.7-0.1-5.4,1-7.3,2.9c-4,4-4,10.4,0,14.5c4.1,3.9,10.5,3.9,14.6,0c4-4,4-10.5,0-14.5
	C112.7,61.9,110,60.8,107.3,60.9z M107.3,77.3c-1.6,0-3.1-0.6-4.1-1.8c-2.3-2.5-2.3-6.4,0-8.9c2-2.3,5.6-2.5,7.8-0.4
	c0.2,0.1,0.3,0.3,0.4,0.4c2.3,2.5,2.3,6.4,0,8.9C110.4,76.7,108.9,77.3,107.3,77.3z"/>
<path class="st2" d="M88,60.9c-2.7-0.1-5.4,1-7.3,2.9c-2,1.9-3.1,4.5-3,7.3c-0.1,2.7,1,5.3,2.9,7.2c4.3,4,10.9,3.8,15-0.4
	c0.1-0.2,0.3-0.3,0.4-0.5l-2.8-2.9c-1.2,1.7-3.2,2.6-5.3,2.6c-1.5,0-3-0.6-4-1.7c-1.2-1.2-1.8-2.8-1.7-4.4c-0.1-1.6,0.6-3.2,1.8-4.3
	c1.1-1.1,2.7-1.6,4.2-1.6c2,0,3.9,0.9,5.2,2.6l2.7-3.1C94.1,62.2,91.1,60.8,88,60.9z"/>
<path class="st2" d="M120.5,74.8c-0.6,0-1.2,0.1-1.7,0.4c-0.5,0.3-0.9,0.8-1.2,1.3l-0.1,0.1l1.6,0.9l0.1-0.1
	c0.4-0.6,0.8-0.9,1.2-0.9c0.2,0,0.4,0.1,0.5,0.2c0.1,0.1,0.2,0.3,0.2,0.5c0,0.3-0.1,0.5-0.3,0.7c-0.3,0.4-0.6,0.8-0.9,1.1l-2.2,2.3
	v1.4h5.6v-1.8h-2.8l1.1-1.2c0.4-0.4,0.8-0.9,1.1-1.4c0.2-0.4,0.3-0.8,0.3-1.2c0-0.7-0.3-1.3-0.8-1.8C121.8,75,121.2,74.7,120.5,74.8
	L120.5,74.8z"/>
<g id="a821b06b-c702-4c15-acd9-6eddb519ce5c">
	<path class="st3" d="M252.5,81.8l-3.1-2l-3-2.1l-3.3-2.1l-3.1-1.7c-0.7,0.3-0.5,0.4-1.3,0.6c-1.3,0.2-2.6,0.4-3.9,0.5l1.5,1.5
		l2.8,2.1l2.5,2.4l2.2,2.6l2.8,2.1l2.3,2.5l2.7,2.4l3.7-2.3l3.5-2.4l-3.2-1.9L252.5,81.8z"/>
	<path class="st3" d="M258.8,71.7l-1.3-0.1l-1.3-0.2l-1.3-0.3l-1.3-0.3l-1.3-0.2l-1.3-0.2l-1.3-0.2l-1.5-1.2l-0.5,0.1l-0.4,0.6
		l0.2,0.5l-0.5-0.1c-1.2,1.4-2.6,2.5-4.2,3.3h0.1l1.3,0.2l1.3,0.4l1.3,0.3l1.3,0.3l1.3,0.4l1.3,0.4l1.3,0.2l1.3,0.4l1.3,0.3l1.3,0.3
		l1.3,0.4l1.3,0.2l0.4-1.3l0.5-1.3l0.4-1.3l0.5-1.3L258.8,71.7z"/>
	<path class="st3" d="M206.2,76.4l1.2-0.4l1.3-0.2l1.2-0.4l1.2-0.2l1,0.2l1,0.2l1,0.3l1-0.6l-0.9-0.5l-0.8-0.4l1.2-0.4l1.2-0.3
		l1.1-0.5l1.6-0.7h0.2c-0.7-0.3-4.1-2.2-4.6-3.2l-1.9,0.5c-0.2,0-0.4,0-0.5,0c-0.3,0-0.6,0.1-0.9,0.1c-0.6,0.1-1.3,0.2-1.9,0.3
		c-1.6,0.3-3.3,0.6-4.9,0.8l-1.2,0.2l-1.2,0.1l-1.2,0.3l0.2,1.2l0.3,1.1l0.1,1.2l0.2,1.2l0.3,1.1l1.2-0.3l1.3-0.2l1.2-0.3
		L206.2,76.4z"/>
	<path class="st3" d="M235.5,81.1l-1.1,0.7l-0.1-3.9l-0.2-3c-1,0.1-2.1,0.1-3.1,0.1s-2.1,0-3.4-0.1l-0.4,2.1l-1.6,3.3l-1,3.5
		l-1.1,3.5l-1,3.5l-1.1,3.4l4.4-0.1l4.4-0.2h4.4l-0.2-3.4l0.3-3.5l-0.4-3.5l1.3-0.4L235.5,81.1z"/>
	<path class="st3" d="M225.1,76.6l1.7-1.7c-1.8-0.2-3.6-0.6-5.2-1.3l-0.5,0.3l-4.1,2l-3.1,1.8l-2.7,2.3l-3,1.9l-2.8,2.2l-3.2,1.9
		l3.5,2.1l3.5,2l2.7-2.3l2.6-2.3l2.5-2.4l2.9-2l2.4-2.4L225.1,76.6z"/>
	<path class="st4" d="M249.6,52.9c0.1,5.5-2.8,6.3-2.8,6.3s-0.1-6.7,3.4-11.5c-3.6-0.5-7,4.9-7,4.9c0.8-1.2,1.4-2.5,2-3.9
		c0.9-2.8,0.7-8-1.9-9.7c-0.8,6.3-4.2,7.8-4.2,7.8s4.4-11.7-2.5-15.2c0.4,6.1-2.7,9-2.7,9s1-1.9-0.7-5.6c-1.5-3.2-2.1-8.8,0.9-10.7
		c-6.8,0.6-9.6,6.4-10.4,11c-0.5,2.8-0.3,5.6,0.5,8.3c0,0-3.2-7-8.1-5c2.9,2.3,3.6,6.4,1.7,9.5c-1.6,3-1.4,7.9-1.4,7.9
		s-2.1-1.6-1.6-6.6c-1.4,0.2-3.8,4.7-3.6,9.2c0,3.3,1.3,6.4,3.4,8.8c1.7,2.1,4.6,3.4,7.9,4.1c-1-1.5-1.5-3.3-1.6-5.1
		c-0.2-4.5,4.5-6.9,4.3-10.6c1.1,0.2,1.9,1.1,2.1,2.2c1.6-3.3,3.9-5.9,3.8-9.5c3.9,1.2,1.8,6.9,4.4,11.7c0.1-1.3,1-2.3,2.2-2.6
		c-0.3,3.3,4.3,5.4,4.1,9.4c-0.1,1.7-0.7,3.3-1.8,4.6c0.4-0.1,0.7-0.1,1-0.2C247.7,69.8,256.5,57.7,249.6,52.9z"/>
</g>
</svg>
